digitransit-component/packages/digitransit-component-icon/src/assets/mode_digi_funicular.svg

<svg width="55" height="55" viewBox="14 15 20 20" fill="none" xmlns="http://www.w3.org/2000/svg">
    <circle cx="24" cy="24" r="7.7" fill="#007AC9" stroke="white"/>
    <circle cx="24.0001" cy="24.0001" r="4.4" fill="white"/>
    <circle cx="24" cy="24" r="7.7" fill="#ff00ff" stroke="white"/>
    <rect x="20.2122" y="25.7332" width="7.80215" height="0.433318" rx="0.216659" transform="rotate(15 20.2122 25.7332)" fill="white"/>
    <path d="M21.3999 21.0333C21.3999 20.7572 21.6238 20.5333 21.8999 20.5333H27.0059C27.2821 20.5333 27.5059 20.7572 27.5059 21.0333V21.1C27.5059 21.2656 27.3716 21.4 27.2059 21.4H21.5999C21.4894 21.4 21.3999 21.3104 21.3999 21.2V21.0333Z" fill="white"/>
    <rect x="24.1136" y="24.6978" width="4.07069" height="0.346655" transform="rotate(-70 24.1136 24.6978)" fill="white"/>
    <path d="M22.3037 24.4332H26.2136C26.4897 24.4332 26.7136 24.6571 26.7136 24.9332V25.188C26.7136 25.2617 26.6973 25.3344 26.666 25.401L26.2035 26.3832L21.8704 25.2999L22.3037 24.4332Z" fill="white"/>
    <rect x="21.6614" y="24.8665" width="5.19982" height="0.779973" rx="0.389986" transform="rotate(15 21.6614 24.8665)" fill="white"/>
    <path fill-rule="evenodd" clip-rule="evenodd" d="M26.2035 24.9433L27.5035 21.2118H21.6395C21.5147 21.2118 21.4204 21.3248 21.4427 21.4476L22.0783 24.9433H26.2035ZM23.237 21.4C22.9608 21.4 22.737 21.6238 22.737 21.9V23.9332C22.737 24.2093 22.9608 24.4332 23.237 24.4332H25.6345C25.8458 24.4332 26.0343 24.3004 26.1054 24.1014L27.0702 21.4H23.237Z" fill="white"/>
    <path d="M23.2 31.2H24.7999V36.7999C24.7999 37.2418 24.4418 37.5999 24 37.5999V37.5999C23.5581 37.5999 23.2 37.2418 23.2 36.7999V31.2Z" fill="#333333"/>
</svg>

<svg xmlns="http://www.w3.org/2000/svg" width="55" height="55" fill="none" viewBox="14 15 20 20">
 <circle cx="24" cy="24" r="7.7" fill="#007ac9" stroke="#fff"/>
 <circle cx="24" cy="24" r="4.4" fill="#fff"/>
 <circle cx="24" cy="24" r="7.7" fill="#f0f" stroke="#fff"/>
 <rect width="7.802" height=".433" x="20.212" y="25.733" fill="#fff" rx=".217" transform="rotate(15 20.212 25.733)"/>
 <path fill="#fff" d="M21.4 21.033a.5.5 0 0 1 .5-.5h5.106a.5.5 0 0 1 .5.5v.067a.3.3 0 0 1-.3.3H21.6a.2.2 0 0 1-.2-.2z"/>
 <path fill="#fff" d="m24.114 24.697 1.392-3.825.326.119-1.392 3.825z"/>
 <path fill="#fff" d="M22.304 24.433h3.91a.5.5 0 0 1 .5.5v.255a.5.5 0 0 1-.048.213l-.463.982L21.87 25.3z"/>
 <rect width="5.2" height=".78" x="21.661" y="24.866" fill="#fff" rx=".39" transform="rotate(15 21.661 24.866)"/>
 <path fill="#fff" fill-rule="evenodd" d="m26.204 24.943 1.3-3.731H21.64a.2.2 0 0 0-.197.236l.635 3.495zM23.237 21.4a.5.5 0 0 0-.5.5v2.033a.5.5 0 0 0 .5.5h2.398a.5.5 0 0 0 .47-.332l.965-2.701z" clip-rule="evenodd"/>
 <path fill="#333" d="M23.2 31.2h1.6v5.6a.8.8 0 1 1-1.6 0z"/>
</svg>
